icons/media/stop-fill-circle-24.svg

<svg width="24" height="24" viewBox="0 0 24 24" fill="none" xmlns="http://www.w3.org/2000/svg">
<path d="M8 9.75C8 8.7835 8.7835 8 9.75 8H14.25C15.2165 8 16 8.7835 16 9.75V14.25C16 15.2165 15.2165 16 14.25 16H9.75C8.7835 16 8 15.2165 8 14.25V9.75Z" fill="black"/>
<path fill-rule="evenodd" clip-rule="evenodd" d="M1 12C1 5.925 5.925 1 12 1C18.075 1 23 5.925 23 12C23 18.075 18.075 23 12 23C5.925 23 1 18.075 1 12ZM12 2.5C9.48044 2.5 7.06408 3.50089 5.28249 5.28249C3.50089 7.06408 2.5 9.48044 2.5 12C2.5 14.5196 3.50089 16.9359 5.28249 18.7175C7.06408 20.4991 9.48044 21.5 12 21.5C14.5196 21.5 16.9359 20.4991 18.7175 18.7175C20.4991 16.9359 21.5 14.5196 21.5 12C21.5 9.48044 20.4991 7.06408 18.7175 5.28249C16.9359 3.50089 14.5196 2.5 12 2.5Z" fill="black"/>
</svg>

<svg xmlns="http://www.w3.org/2000/svg" width="24" height="24"><path d="M8 9.75C8 8.784 8.784 8 9.75 8h4.5c.966 0 1.75.784 1.75 1.75v4.5A1.75 1.75 0 0114.25 16h-4.5A1.75 1.75 0 018 14.25v-4.5z"/><path fill-rule="evenodd" d="M1 12C1 5.925 5.925 1 12 1s11 4.925 11 11-4.925 11-11 11S1 18.075 1 12zm11-9.5a9.5 9.5 0 100 19 9.5 9.5 0 000-19z"/></svg>
